!!!COM:	Bach, Johann Sebastian
!!!CDT:	1685/02/21/-1750/07/28/
!!!OTL@@DE:	Ich freue mich in dir
!!!SCT:	BWV 133/6
!!!PC#:	60
!!!AGN:	chorale
**kern	**kern	**kern	**kern
*ICvox	*ICvox	*ICvox	*ICvox
*Ibass	*Itenor	*Ialto	*Isoprn
*I"Bass	*I"Tenor	*I"Alto	*I"Soprano
*>[A,A,B]	*>[A,A,B]	*>[A,A,B]	*>[A,A,B]
*>norep[A,B]	*>norep[A,B]	*>norep[A,B]	*>norep[A,B]
*>A	*>A	*>A	*>A
*clefF4	*clefGv2	*clefG2	*clefG2
*k[f#c#]	*k[f#c#]	*k[f#c#]	*k[f#c#]
*D:	*D:	*D:	*D:
*M4/4	*M4/4	*M4/4	*M4/4
*met(c)	*met(c)	*met(c)	*met(c)
*MM100	*MM100	*MM100	*MM100
8DL	4A	8dL	8f#L
8EJ	.	8c#J	8gJ
=1	=1	=1	=1
4F#	4A	4d	4a
4G	4G	4d	4b
4A	8F#L	8dL	4a
.	8EJ	16c#L	.
.	.	16BJJ	.
4AA	4A	4c#	8gL
.	.	.	8f#J
=2	=2	=2	=2
2D;	2A;	2d;	2f#;
4r	4ry	4ry	4r
4D	4A	4f#	4a
=3	=3	=3	=3
4D	4e	4g#	4b
4C#	4e	4a#	4cc#
8BBL	4f#	4b	4dd
8C#	.	.	.
8D	4B	4f#	8ddL
8EJ	.	.	8cc#J
=4	=4	=4	=4
2F#	4B	4.f#	2cc#
.	4A#	.	.
.	.	8e	.
4BB;	4B;	4d;	4b;
=:|!	=:|!	=:|!	=:|!
*>B	*>B	*>B	*>B
4G#	4B	4e	8eeL
.	.	.	8ddJ
=5	=5	=5	=5
8AnXL	4AnX	4e	4cc#
8G#	.	.	.
8F#	4A	4f#	8ddL
8EJ	.	.	8cc#J
8DL	4A	8f#L	4.b
8BBJ	.	8dJ	.
4E	4G#X	4e	.
.	.	.	8a
=6	=6	=6	=6
2.AA;	2.c#;	2.e;	2.a;
4A	4c#	4e	4a
=7	=7	=7	=7
4G#	4B	8eL	4b
.	.	8f#J	.
4E	4e	4g#	4cc#
4F#	8dL	4a	4.dd
.	8c#J	.	.
4G#	4B	4e	.
.	.	.	8ee
=8	=8	=8	=8
2.A;	2.A;	2.e;	2.cc#;
4GnX	4c#	4e	4a
=9	=9	=9	=9
4F#	4d	4f#	4a
8EL	4G	8gL	4b
8DJ	.	8f#J	.
4C#	8AL	4e	4a
.	8BJ	.	.
4AA	4c#	4e	8gL
.	.	.	8f#J
=10	=10	=10	=10
2BB;	2B;	2d;	2f#;
4r	4ry	4ry	4r
4F#	4A	4d	4a
=11	=11	=11	=11
4G	8GL	4d	8bL
.	8AJ	.	8cc#J
4G#	4B	4e	4dd
4A	4A	8eL	4dd
.	.	8f#J	.
4AA	4A	4gnX	4cc#
=12	=12	=12	=12
2.D;	2.A;	2.f#;	2.dd;
==	==	==	==
*-	*-	*-	*-
!!!hum2abc: -Q ''
!!!title: @{PC#}. @{OTL@@DE}
!!!YOR1: 371 vierstimmige Choralges&auml;nge von Johann Sebastian Bach, 
!!!YOR2: 4th ed. by Alfred D&ouml;rffel (Leipzig: Breitkopf und H&auml;rtel, 
!!!YOR2: c.1875). 178 pp. Plate "V.A.10".  reprint: J.S. Bach, 371 Four-Part 
!!!YOR4: Chorales (New York: Associated Music Publishers, Inc., c.1940).
!!!SMS: B&H, 4th ed, Alfred D&ouml;rffel, c.1875, plate V.A.10
!!!EED:  Craig Stuart Sapp
!!!EEV:  2009/05/22
